!!!SOCIAL_FUNCTION:	songs of games played in a ceremonial manner
!!!PDT:	1932
!!!OTL: No_8_I_Paint_My_Face_Red.krn
!!!REG: Wisconsin
!!!LANG: Non-Tone
!!!LING_GROUP: Algonquin
**kern
*staff1
=1-
*clefF4
*k[f#]
*M2/4
8r
8d\
8d\L
8d\J
=2
4.d\
8d\
=3||
*M3/8
8c\L
8A\
8A\J
=4||
*M2/4
4.A\
8E\
=5
8E\L
8E\J
8E\
8r
=6
8c\L
8c\J
8A\L
8A\J
=7||
*M3/4
4.A\
8c\
8A\L
8A\J
=8||
*M2/4
2A\
=9
8c\L
8A\J
8G\L
8G\J
=10
2G\
=11
8G\L
8E\J
8E\
8r
=12
8A\L
8A\J
8G\L
8G\J
=13||
*M3/4
4.G\
8A\
8G\L
8A\J
=14||
*M2/4
4G\
8G\L
8E\J
=15
8D\L
8D\J
8D\L
16D\Jk
16r
=16
4G\
8G\L
8E\J
=17
4D\
8D\L
8D\J
=18
8D/L
8BB/J
8GG/L
8GG/J
=19
2GG/
==
*-
